build/finance/GBPSolid.svg

<svg xmlns="http://www.w3.org/2000/svg" fill="none" viewBox="0 0 24 24" focusable="false"><path d="M0 0H24V24H0z"/><path fill="#74767B" fill-rule="evenodd" d="M12 3C7.02944 3 3 7.02944 3 12C3 16.9706 7.02944 21 12 21C16.9706 21 21 16.9706 21 12C21 7.02944 16.9706 3 12 3ZM14.3486 7.6366C13.8448 7.15078 13.0622 6.94892 12.349 6.99735C11.6183 7.04697 10.8153 7.36931 10.3264 8.11388C9.87818 8.79649 9.78958 9.48571 9.79689 10.1742C9.8 10.4682 9.82118 10.7782 9.84227 11.087L9.85102 11.2157C9.85761 11.3138 9.86406 11.413 9.86996 11.5135L8.75431 11.5135C8.39532 11.5135 8.10431 11.8046 8.10431 12.1635C8.10431 12.5225 8.39532 12.8135 8.75431 12.8135L9.87261 12.8135C9.80487 13.4402 9.60454 13.9722 9.35779 14.3818C9.03893 14.911 8.6857 15.1702 8.50558 15.2314C8.20442 15.3338 8.02158 15.6391 8.07346 15.9529C8.12534 16.2667 8.39669 16.4969 8.71476 16.4969L14.4274 16.4968C14.7864 16.4968 15.0774 16.2058 15.0774 15.8468C15.0774 15.4878 14.7864 15.1968 14.4274 15.1968L10.3807 15.1969C10.4117 15.1496 10.4419 15.1015 10.4713 15.0526C10.8316 14.4546 11.1059 13.6929 11.1784 12.8135L12.7795 12.8135C13.1385 12.8135 13.4295 12.5225 13.4295 12.1636C13.4295 11.8046 13.1385 11.5135 12.7795 11.5135L11.1721 11.5135C11.1647 11.3801 11.1564 11.2517 11.1481 11.1285L11.1392 10.9976C11.1178 10.6835 11.0995 10.4142 11.0968 10.1604C11.0909 9.60218 11.1635 9.20747 11.4131 8.8274C11.6219 8.50928 11.9965 8.32428 12.437 8.29437C12.895 8.26327 13.2774 8.40968 13.4462 8.5724C13.7046 8.82158 14.1161 8.8141 14.3653 8.55569C14.6145 8.29727 14.607 7.88578 14.3486 7.6366Z"/></svg>

<svg xmlns="http://www.w3.org/2000/svg" fill="none" viewBox="0 0 24 24" focusable="false"><path fill="#74767B" fill-rule="evenodd" d="M12 3c-4.98 0-9 4.02-9 9 0 4.97 4.02 9 9 9a9 9 0 0 0 9-9c0-4.98-4.03-9-9-9m2.34 4.63c-.5-.48-1.28-.69-2-.64-.73.05-1.53.37-2.02 1.12-.45.68-.54 1.37-.53 2.06.01.29.03.6.05.91l.01.13c0 .1.01.2.01.3H8.75c-.36 0-.65.29-.65.65s.29.65.65.65h1.12c-.07.63-.27 1.16-.52 1.57-.32.53-.67.79-.85.85-.3.1-.48.4-.43.72.05.31.32.54.64.54h5.71c.36 0 .65-.29.65-.65s-.29-.65-.65-.65h-4.04c.03-.05.06-.09.09-.14.36-.6.63-1.36.7-2.24h1.6c.36 0 .65-.29.65-.65s-.29-.65-.65-.65h-1.6l-.03-.39-.01-.13c-.02-.31-.04-.58-.04-.83 0-.56.07-.96.32-1.34.21-.32.58-.5 1.02-.53.46-.03.84.11 1.01.28.26.25.67.24.92-.02s.24-.67-.02-.92"/></svg>
